public/assets/images/others/icon/12.svg

<svg width="50" height="50" viewBox="0 0 50 50" fill="none" xmlns="http://www.w3.org/2000/svg">
<g clip-path="url(#clip0_840_13652)">
<path d="M24.4141 17.5781C24.9531 17.5781 25.3906 17.1406 25.3906 16.6016C25.3906 16.0625 24.9531 15.625 24.4141 15.625C23.875 15.625 23.4375 16.0625 23.4375 16.6016C23.4375 17.1406 23.875 17.5781 24.4141 17.5781Z" fill="#615EFC"/>
<path d="M24.4141 21.4844C24.9531 21.4844 25.3906 21.0468 25.3906 20.5078C25.3906 19.9688 24.9531 19.5312 24.4141 19.5312C23.875 19.5312 23.4375 19.9688 23.4375 20.5078C23.4375 21.0468 23.875 21.4844 24.4141 21.4844Z" fill="#615EFC"/>
<path d="M49.7139 10.0517L39.9483 0.286102C39.7755 0.112915 39.5245 0 39.2578 0H14.6484C13.0329 0 11.7188 1.31416 11.7188 2.92969V5.90439C11.3945 5.87502 11.0683 5.85938 10.7422 5.85938C4.81911 5.85938 0 10.6785 0 16.6016C0 22.5246 4.81911 27.3438 10.7422 27.3438C11.0683 27.3438 11.3945 27.3281 11.7188 27.2987V47.0703C11.7188 48.6858 13.0329 50 14.6484 50H47.0703C48.6858 50 50 48.6858 50 47.0703V10.7422C50 10.4755 49.889 10.2268 49.7139 10.0517ZM40.2344 3.33405L46.666 9.76562H40.2344V3.33405ZM11.7188 7.86705C15.8424 8.32214 19.0239 11.61 19.4748 15.625H11.7188V7.86705ZM1.95312 16.6016C1.95312 12.0853 5.3772 8.35457 9.76562 7.86705V16.6016C9.76562 17.141 10.2028 17.577 10.7422 17.577H19.4748C18.9842 21.9456 15.2882 25.3906 10.7422 25.3906C5.896 25.3906 1.95312 21.4478 1.95312 16.6016ZM47.0703 48.0469H14.6484C14.1098 48.0469 13.6719 47.6089 13.6719 47.0703V26.9371C18.2434 25.6432 21.4844 21.4203 21.4844 16.6016C21.4844 11.7828 18.2434 7.55997 13.6719 6.26602V2.92969C13.6719 2.39105 14.1098 1.95312 14.6484 1.95312H38.2812V10.7422C38.2812 11.2816 38.7184 11.7188 39.2578 11.7188H48.0469V47.0703C48.0469 47.6089 47.6089 48.0469 47.0703 48.0469Z" fill="#615EFC"/>
<path d="M25 7.8125H35.3516C35.891 7.8125 36.3281 7.37534 36.3281 6.83594C36.3281 6.29654 35.891 5.85938 35.3516 5.85938H25C24.4606 5.85938 24.0234 6.29654 24.0234 6.83594C24.0234 7.37534 24.4606 7.8125 25 7.8125Z" fill="#615EFC"/>
<path d="M25 11.7188H35.3516C35.891 11.7188 36.3281 11.2816 36.3281 10.7422C36.3281 10.2028 35.891 9.76562 35.3516 9.76562H25C24.4606 9.76562 24.0234 10.2028 24.0234 10.7422C24.0234 11.2816 24.4606 11.7188 25 11.7188Z" fill="#615EFC"/>
<path d="M10.7422 21.4844C8.04977 21.4844 5.85938 19.294 5.85938 16.6016C5.85938 16.0622 5.42221 15.625 4.88281 15.625C4.34341 15.625 3.90625 16.0622 3.90625 16.6016C3.90625 20.3709 6.97289 23.4375 10.7422 23.4375C11.2816 23.4375 11.7188 23.0003 11.7188 22.4609C11.7188 21.9215 11.2816 21.4844 10.7422 21.4844Z" fill="#615EFC"/>
<path d="M42.8711 25.9766C41.2556 25.9766 39.9414 27.2907 39.9414 28.9062C39.9414 29.5116 40.126 30.0751 40.4419 30.5424L33.6605 37.8208C33.392 37.7396 33.1074 37.6953 32.8125 37.6953C32.4005 37.6953 32.0019 37.7808 31.6357 37.9414L28.5812 34.1549C28.7933 33.7448 28.9062 33.2874 28.9062 32.8125C28.9062 31.197 27.5921 29.8828 25.9766 29.8828C24.361 29.8828 23.0469 31.197 23.0469 32.8125C23.0469 33.2687 23.1514 33.7086 23.3475 34.1061L19.7865 37.9658C19.4054 37.7888 18.9873 37.6953 18.5547 37.6953C16.9392 37.6953 15.625 39.0095 15.625 40.625C15.625 42.2405 16.9392 43.5547 18.5547 43.5547C20.1702 43.5547 21.4844 42.2405 21.4844 40.625C21.4844 40.1688 21.3802 39.7289 21.1838 39.3314L24.7448 35.4717C25.1259 35.6487 25.544 35.7422 25.9766 35.7422C26.3885 35.7422 26.7872 35.6567 27.1534 35.4961L30.2078 39.2826C29.9957 39.6927 29.8828 40.1501 29.8828 40.625C29.8828 42.2405 31.197 43.5547 32.8125 43.5547C34.428 43.5547 35.7422 42.2405 35.7422 40.625C35.7422 40.0196 35.5576 39.4562 35.2417 38.9889L42.0231 31.7104C42.2916 31.7917 42.5762 31.8359 42.8711 31.8359C44.4866 31.8359 45.8008 30.5218 45.8008 28.9062C45.8008 27.2907 44.4866 25.9766 42.8711 25.9766ZM18.5547 41.6016C18.0161 41.6016 17.5781 41.1636 17.5781 40.625C17.5781 40.0864 18.0161 39.6484 18.5547 39.6484C19.0937 39.6484 19.5312 40.0856 19.5312 40.625C19.5312 41.1636 19.0933 41.6016 18.5547 41.6016ZM25 32.8125C25 32.2739 25.4379 31.8359 25.9766 31.8359C26.5152 31.8359 26.9531 32.2739 26.9531 32.8125C26.9531 33.3515 26.516 33.7891 25.9766 33.7891C25.4372 33.7891 25 33.3515 25 32.8125ZM32.8125 41.6016C32.2739 41.6016 31.8359 41.1636 31.8359 40.625C31.8359 40.086 32.2731 39.6484 32.8125 39.6484C33.3511 39.6484 33.7891 40.0864 33.7891 40.625C33.7891 41.1636 33.3511 41.6016 32.8125 41.6016ZM42.8711 29.8828C42.3325 29.8828 41.8945 29.4449 41.8945 28.9062C41.8945 28.3676 42.3325 27.9297 42.8711 27.9297C43.4097 27.9297 43.8477 28.3676 43.8477 28.9062C43.8477 29.4449 43.4097 29.8828 42.8711 29.8828Z" fill="#615EFC"/>
<path d="M27.3438 16.6016C27.3438 17.141 27.7809 17.5781 28.3203 17.5781H43.1641C43.7035 17.5781 44.1406 17.141 44.1406 16.6016C44.1406 16.0622 43.7035 15.625 43.1641 15.625H28.3203C27.7809 15.625 27.3438 16.0622 27.3438 16.6016Z" fill="#615EFC"/>
<path d="M43.1641 19.5312H28.3203C27.7809 19.5312 27.3438 19.9684 27.3438 20.5078C27.3438 21.0472 27.7809 21.4844 28.3203 21.4844H43.1641C43.7035 21.4844 44.1406 21.0472 44.1406 20.5078C44.1406 19.9684 43.7035 19.5312 43.1641 19.5312Z" fill="#615EFC"/>
</g>
<defs>
<clipPath id="clip0_840_13652">
<rect width="50" height="50" fill="white"/>
</clipPath>
</defs>
</svg>

<svg xmlns="http://www.w3.org/2000/svg" width="50" height="50" fill="none" viewBox="0 0 50 50"><g fill="#615efc" clip-path="url(#a)"><path d="M24.414 17.578a.977.977 0 1 0 0-1.954.977.977 0 0 0 0 1.954m0 3.906a.977.977 0 1 0 0-1.954.977.977 0 0 0 0 1.954"/><path d="M49.714 10.052 39.948.286a1 1 0 0 0-.69-.286h-24.61a2.933 2.933 0 0 0-2.93 2.93v2.974q-.486-.044-.976-.045C4.82 5.86 0 10.68 0 16.602s4.82 10.742 10.742 10.742q.49 0 .977-.045V47.07a2.933 2.933 0 0 0 2.93 2.93H47.07A2.933 2.933 0 0 0 50 47.07V10.742a.98.98 0 0 0-.286-.69m-9.48-6.718 6.432 6.432h-6.432zM11.72 7.867c4.123.455 7.305 3.743 7.756 7.758H11.72zm-9.766 8.735c0-4.517 3.424-8.247 7.813-8.735v8.735c0 .539.437.975.976.975h8.733c-.49 4.369-4.187 7.814-8.733 7.814-4.846 0-8.789-3.943-8.789-8.79M47.07 48.047H14.648a.977.977 0 0 1-.976-.977V26.937c4.571-1.294 7.812-5.517 7.812-10.335 0-4.82-3.24-9.042-7.812-10.336V2.93c0-.539.438-.977.976-.977h23.633v8.79c0 .539.437.976.977.976h8.789V47.07a.98.98 0 0 1-.977.977"/><path d="M25 7.813h10.352a.976.976 0 1 0 0-1.954H25a.977.977 0 1 0 0 1.954m0 3.906h10.352a.976.976 0 1 0 0-1.953H25a.977.977 0 1 0 0 1.953m-14.258 9.765a4.89 4.89 0 0 1-4.883-4.882.977.977 0 1 0-1.953 0 6.844 6.844 0 0 0 6.836 6.836.977.977 0 1 0 0-1.954m32.129 4.493a2.933 2.933 0 0 0-2.93 2.93c0 .605.185 1.168.5 1.635l-6.78 7.279a2.93 2.93 0 0 0-2.025.12l-3.055-3.786a2.933 2.933 0 0 0-2.605-4.272 2.933 2.933 0 0 0-2.628 4.223l-3.561 3.86a2.933 2.933 0 0 0-4.161 2.66 2.933 2.933 0 0 0 2.929 2.929 2.933 2.933 0 0 0 2.629-4.224l3.56-3.86c.382.178.8.271 1.233.271.412 0 .81-.085 1.176-.246l3.055 3.787a2.933 2.933 0 0 0 2.605 4.272 2.933 2.933 0 0 0 2.93-2.93c0-.605-.185-1.169-.501-1.636l6.781-7.279q.404.125.848.126a2.933 2.933 0 0 0 2.93-2.93 2.933 2.933 0 0 0-2.93-2.93M18.555 41.602a.978.978 0 1 1 .002-1.956.978.978 0 0 1-.002 1.956M25 32.812a.978.978 0 1 1 1.955.002.978.978 0 0 1-1.955-.002m7.813 8.79a.978.978 0 0 1 0-1.954.978.978 0 0 1 0 1.954m10.058-11.72a.978.978 0 0 1 0-1.952.977.977 0 0 1 0 1.953M27.344 16.602c0 .539.437.976.976.976h14.844a.976.976 0 1 0 0-1.953H28.32a.976.976 0 0 0-.976.977m15.82 2.929H28.32a.976.976 0 1 0 0 1.953h14.844a.976.976 0 1 0 0-1.953"/></g><defs><clipPath id="a"><path fill="#fff" d="M0 0h50v50H0z"/></clipPath></defs></svg>
